X: 1
T: Angus John MacNeil of Barra
M: 9/8
L: 1/8
R: slip jig
K:Cdor
~C3 CB,C D2B,|~C3 CB,D GFD|~C3 CB,C D2F|~B,3 B,2C DFF:||
C2c cBG B2F|Gcc GBG FGB|1C2c cBG B2F|~B,3 B,2C DFF:||2cGG GBA G2F|~B,3 B,2C DFF||
GFD DFB, D2G|FDC C2A BGG|GFD DFB, D2F|~B,3 B,2C DFF:||
BcB GBG F2G|cGG GBG FGB|1c2c cBG B2F|~B,3 B,2C DFF:||2~c3 cBA G2F|~B,3 B,2C DFF||
